img/icon-login.svg

<svg fill="none" height="17" viewBox="0 0 20 17" width="20" xmlns="http://www.w3.org/2000/svg"><g fill="#c5c5c5"><path d="m14.1667 8.5-8.45241-8.5v6h-5.71429v5h5.71429v6z"/><path d="m16.1771 15.01h-4.7876v1.99h4.7876c2.0743 0 2.861-1.81 2.8848-3.026v-10.946c-.0238-1.217-.8105-3.028-2.8848-3.028h-4.7876v1.99h4.7876c.7991 0 .9448.681.962 1.057v10.904c-.0162.376-.1629 1.059-.962 1.059z"/></g></svg>

<svg width="20" height="17" viewBox="0 0 20 17" fill="none" xmlns="http://www.w3.org/2000/svg">
  <path d="M14.1667 8.5L5.71429 0V6H0V11H5.71429V17L14.1667 8.5Z" fill="#C5C5C5"/>
  <path d="M16.1771 15.01H11.3895V17H16.1771C18.2514 17 19.0381 15.19 19.0619 13.974V3.028C19.0381 1.811 18.2514 0 16.1771 0H11.3895V1.99H16.1771C16.9762 1.99 17.1219 2.671 17.1391 3.047V13.951C17.1229 14.327 16.9762 15.01 16.1771 15.01Z" fill="#C5C5C5"/>
</svg>
